assets/img/Brands/twitter.svg

<svg width="30" height="26" viewBox="0 0 30 26" fill="none" xmlns="http://www.w3.org/2000/svg">
<path d="M26.9163 6.70115C26.9354 6.97457 26.9354 7.24806 26.9354 7.52148C26.9354 15.8613 20.7488 25.4707 9.44166 25.4707C5.95813 25.4707 2.7221 24.4355 0 22.6387C0.494943 22.6973 0.970785 22.7168 1.48477 22.7168C4.3591 22.7168 7.00509 21.7207 9.11804 20.0215C6.41499 19.9629 4.14974 18.1465 3.36927 15.6465C3.75001 15.705 4.1307 15.7441 4.53049 15.7441C5.0825 15.7441 5.63457 15.666 6.1485 15.5293C3.33124 14.9433 1.21823 12.4043 1.21823 9.33788V9.25978C2.03673 9.72854 2.98859 10.0215 3.9974 10.0605C2.3413 8.92768 1.25631 6.99411 1.25631 4.8066C1.25631 3.63474 1.56083 2.56052 2.09386 1.62302C5.12053 5.45114 9.67006 7.9511 14.7715 8.22458C14.6764 7.75583 14.6193 7.2676 14.6193 6.7793C14.6193 3.3027 17.3604 0.470703 20.7678 0.470703C22.5381 0.470703 24.137 1.23242 25.2602 2.46289C26.6497 2.18947 27.9822 1.6621 29.1625 0.939457C28.7055 2.40433 27.7348 3.6348 26.4594 4.416C27.6967 4.27935 28.896 3.92771 30 3.43947C29.1626 4.68942 28.1156 5.80266 26.9163 6.70115Z" fill="#857885"/>
</svg>

<svg width="30" height="26" fill="none" xmlns="http://www.w3.org/2000/svg"><path d="M26.916 6.701c.02.274.02.547.02.82 0 8.34-6.187 17.95-17.494 17.95-3.484 0-6.72-1.035-9.442-2.832.495.058.97.078 1.485.078 2.874 0 5.52-.996 7.633-2.695-2.703-.06-4.968-1.875-5.749-4.375a7.64 7.64 0 001.161.097 6.34 6.34 0 001.619-.215c-2.818-.586-4.93-3.125-4.93-6.191V9.26c.818.469 1.77.761 2.778.8a6.348 6.348 0 01-2.74-5.253c0-1.172.304-2.246.837-3.184C5.12 5.451 9.67 7.951 14.772 8.225a7.304 7.304 0 01-.153-1.446c0-3.476 2.741-6.308 6.149-6.308a6.06 6.06 0 014.492 1.992A11.92 11.92 0 0029.162.939a6.265 6.265 0 01-2.703 3.477A12.08 12.08 0 0030 3.439a13.408 13.408 0 01-3.084 3.262z" fill="#857885"/></svg>
